X:1
T:Shule Aroon
M:4/4
L:1/8
K:C
 z4 z2 G2| c2 c2 B2 B2| A3 G E3 E| G3 EG-Ac-B| A- G2 E D2C-D|E-FE-DC-DE-F|\
G-AG-E c2 cB|A-B AGE-DE-G| A4- A2 z2| c4 B4| A3 G E4| G3 EG Ac B| A- G2 E D2C-D|\
E-FE-D CD EF|G-AG-E c2 cB|A-B AGE-DE-G| A4- A2 z2|
